!!!OTL: WOHL HEUTE NOCH UND MORGEN
!!!ARE: Europa, Mitteleuropa, Deutschland
!!!SCT: Z0079
!!!YEM: Copyright 1995, estate of Helmut Schaffrath.
**kern
*ICvox
*Ivox
*M6/4
*k[f#]
*e:
{4e
=1
2ccn
4b
2a
4b
=2
2.f#
2e}
{4b
=3
2ee
4ggn
2ff#
4ee
=4
2.b}
{2.b
=5
2ddn
4a
2b
4ddn
=6
2b
4a
2gn}
{4b
=7
2ee
4ggn
2ff#
4ee
=8
[2.dd#
2dd#]}
{4b
=9
2gn
4b
2f#
4e
=10
2.e
2e}
==
!!!AGN: Sagen - Lied, Romanze, Tod
!!!ONB: ESAC (Essen Associative Code) Database: ZUCCAL
!!!AMT: compound duple
!!!AIN: vox
!!!EED: Helmut Schaffrath
!!!EEV: 1.0
*-
